Newaita-dark/apps/22/hyperterm.svg

<svg height="22" viewBox="0 0 22 22" width="22" xmlns="http://www.w3.org/2000/svg" xmlns:xlink="http://www.w3.org/1999/xlink"><linearGradient id="a" gradientUnits="userSpaceOnUse" x1="10.4603136" x2="10.4603136" y1="19.27333515" y2="20.18292842919"><stop offset="0" stop-opacity=".27451"/><stop offset="1" stop-opacity="0"/></linearGradient><linearGradient id="b"><stop offset="0" stop-opacity=".313726"/><stop offset=".222222" stop-opacity=".27451"/><stop offset="1" stop-opacity="0"/></linearGradient><radialGradient id="c" cx="450.908936" cy="189.579361" gradientTransform="matrix(.00000012 -.0537161 -.0966889 -.00000007 36.749411 43.721791)" gradientUnits="userSpaceOnUse" r="21.166656" xlink:href="#b"/><radialGradient id="d" cx="450.908936" cy="189.579361" gradientTransform="matrix(-.00000012 .0537161 .0966889 .00000007 -14.919199 -5.175142)" gradientUnits="userSpaceOnUse" r="21.166656" xlink:href="#b"/><radialGradient id="e" cx="450.908936" cy="189.579361" gradientTransform="matrix(-.00000012 -.0537161 .0966889 -.00000007 -14.919199 43.721791)" gradientUnits="userSpaceOnUse" r="21.166656" xlink:href="#b"/><radialGradient id="f" cx="450.908936" cy="189.579361" gradientTransform="matrix(.00000012 .0537161 -.0966889 .00000007 36.74941 -5.175142)" gradientUnits="userSpaceOnUse" r="21.166656" xlink:href="#b"/><linearGradient id="g" gradientTransform="matrix(.0495506 0 0 .131056 -3.375079 21.433838)" gradientUnits="userSpaceOnUse" x1="306.752655" x2="305.954529" y1="-16.485477" y2="-141.414581"><stop offset="0" stop-color="#ffa726"/><stop offset="1" stop-color="#f06292"/></linearGradient><linearGradient id="h" gradientTransform="matrix(.0448315 0 0 .109213 -2.014109 19.254569)" gradientUnits="userSpaceOnUse" x1="308.684967" x2="308.684967" y1=".171737" y2="-149.743195"><stop offset="0" stop-color="#424242"/><stop offset="1" stop-color="#616161"/></linearGradient><path d="m3.183594 19.324219h15.464844v.859375h-15.464844zm0 0" fill="url(#a)"/><path d="m18.648438 19.273438h1.816406v-.910157h-1.816406zm0 0" fill="url(#c)"/><path d="m3.183594 19.273438h-1.820313v.910156h1.820313zm0 0" fill="url(#d)"/><path d="m3.183594 19.273438h-1.820313v-.910157h1.820313zm0 0" fill="url(#e)"/><path d="m18.648438 19.273438h1.816406v.910156h-1.816406zm0 0" fill="url(#f)"/><path d="m2.273438 2.902344h17.28125c.503906 0 .910156.382812.910156.855468v14.65625c0 .476563-.40625.859376-.910156.859376h-17.28125c-.5 0-.910157-.382813-.910157-.859376v-14.65625c0-.472656.410157-.855468.910157-.855468zm0 0" fill="url(#g)"/><path d="m2.273438 2.902344c-.503907 0-.910157.382812-.910157.855468v.230469c0-.476562.40625-.859375.910157-.859375h17.28125c.503906 0 .910156.382813.910156.859375v-.230469c0-.472656-.40625-.855468-.910156-.855468zm0 0" fill="#fff" fill-opacity=".392157"/><path d="m2.273438 19.28125c-.503907 0-.910157-.382812-.910157-.859375v-.230469c0 .476563.40625.859375.910157.859375h17.28125c.503906 0 .910156-.382812.910156-.859375v.230469c0 .476563-.40625.859375-.910156.859375zm0 0" fill-opacity=".235294"/><path d="m2.730469 3.757812c-.28125 0-.511719.226563-.511719.507813v12.734375c0 .28125.230469.507812.511719.507812h16.371093c.28125 0 .507813-.226562.507813-.507812v-12.734375c0-.28125-.226563-.507813-.507813-.507813zm0 .105469h16.371093c.222657 0 .402344.179688.402344.402344v12.734375c0 .222656-.179687.402344-.402344.402344h-16.371093c-.226563 0-.402344-.179688-.402344-.402344v-12.734375c0-.222656.175781-.402344.402344-.402344zm0 0" fill="#111" fill-opacity=".588235"/><path d="m2.730469 3.808594h16.371093c.25 0 .453126.207031.453126.457031v12.734375c0 .25-.203126.453125-.453126.453125h-16.371093c-.253907 0-.457031-.203125-.457031-.453125v-12.734375c0-.25.203124-.457031.457031-.457031zm0 0" fill="url(#h)"/><path d="m2.730469 3.871094c-.21875 0-.398438.175781-.398438.394531v12.734375c0 .21875.179688.394531.398438.394531h16.371093c.21875 0 .394532-.175781.394532-.394531v-12.734375c0-.21875-.175782-.394531-.394532-.394531zm0 .105468h16.371093c.160157 0 .289063.128907.289063.289063v12.734375c0 .160156-.128906.285156-.289063.285156h-16.371093c-.160157 0-.289063-.125-.289063-.285156v-12.734375c0-.160156.128906-.289063.289063-.289063zm0 0" fill="#dedede" fill-opacity=".705882"/><path d="m52.904039-147.460995h402.143415c11.726153 0 21.179796 8.90824 21.179796 19.90719v341.058339c0 11.08985-9.453643 19.998091-21.179796 19.998091h-402.143415c-11.635253 0-21.179796-8.908241-21.179796-19.998091v-341.058339c0-10.99895 9.544543-19.90719 21.179796-19.90719zm0 0" fill="none" stroke="#212121" stroke-linecap="round" stroke-width="3" transform="matrix(.0429729 0 0 .0429729 0 9.239163)"/><path d="m11.386719 6.539062c-.164063-.003906-.316407.078126-.402344.214844l-2.273437 3.636719c-.140626.226563-.058594.527344.183593.648437l1.566407.503907-.886719 2.582031c-.070313.214844.023437.445312.21875.546875.199219.105469.441406.050781.574219-.128906l2.730468-3.636719c.171875-.226562.09375-.554688-.160156-.679688l-1.566406-.503906.445312-2.652344c.046875-.273437-.15625-.519531-.429687-.53125zm0 0" fill="#ececec" fill-opacity=".588235"/><path d="m11.785156 7.265625-.414062 2.457031.070312.023438.375-2.222656c.015625-.09375.003906-.179688-.03125-.257813zm1.34375 3.59375c-.011718.015625-.019531.03125-.03125.046875l-2.730468 3.636719c-.132813.179687-.375.234375-.574219.128906-.082031-.042969-.144531-.105469-.1875-.183594l-.03125.09375c-.070313.210938.023437.441407.21875.546875.199219.101563.441406.046875.574219-.128906l2.730468-3.640625c.113282-.152344.117188-.347656.03125-.5zm-4.425781 0c-.132813.226563-.046875.515625.191406.632813l1.425781.460937.140626-.410156-1.566407-.503907c-.085937-.042968-.148437-.105468-.191406-.179687zm0 0" fill-opacity=".235294"/><path d="m11.355469 6.539062c-.152344.003907-.289063.085938-.371094.214844l-2.273437 3.636719c-.09375.148437-.089844.328125-.007813.46875 0-.003906.003906-.007813.007813-.015625l2.273437-3.636719c.085937-.136719.238281-.21875.402344-.214843.179687.007812.332031.117187.398437.269531l.03125-.191407c.046875-.273437-.15625-.519531-.429687-.53125-.011719 0-.019531 0-.03125 0zm.085937 3.207032-.070312.429687 1.566406.503907c.082031.042968.148438.105468.191406.179687.128906-.222656.046875-.515625-.191406-.632813zm-1.121094 2.203125-.746093 2.175781c-.039063.125-.027344.253906.03125.363281l.855469-2.492187zm0 0" fill="#fff" fill-opacity=".392157"/><path d="m264.974696-62.832713c-3.817817-.0909-7.362933 1.818008-9.362742 4.999523l-52.904039 84.628282c-3.272415 5.272223-1.363506 12.271555 4.272319 15.089468l36.451065 11.726153-20.634393 60.085171c-1.636208 4.999522.545402 10.362647 5.090423 12.726057 4.635921 2.454311 10.271746 1.181706 13.36236-2.999713l63.539387-84.628282c3.999618-5.272224 2.18161-12.907859-3.726917-15.816672l-36.451064-11.726153 10.362646-61.721378c1.090805-6.363029-3.636016-12.089755-9.999045-12.362456zm0 0" fill="none" stroke="#212121" stroke-linecap="round" stroke-linejoin="round" stroke-width="3" transform="matrix(.0429729 0 0 .0429729 0 9.239163)"/></svg>

<?xml version="1.0" encoding="UTF-8"?>
<svg xmlns="http://www.w3.org/2000/svg" xmlns:xlink="http://www.w3.org/1999/xlink" width="22px" height="22px" viewBox="0 0 22 22" version="1.1">
<defs>
<linearGradient id="linear0" gradientUnits="userSpaceOnUse" x1="254" y1="233.5" x2="254" y2="254.666672" gradientTransform="matrix(0.0429729,0,0,0.0429729,-0.454803,9.239163)">
<stop offset="0" style="stop-color:rgb(0%,0%,0%);stop-opacity:0.27451;"/>
<stop offset="1" style="stop-color:rgb(0%,0%,0%);stop-opacity:0;"/>
</linearGradient>
<radialGradient id="radial0" gradientUnits="userSpaceOnUse" cx="450.908936" cy="189.579361" fx="450.908936" fy="189.579361" r="21.166656" gradientTransform="matrix(0.000000119742,-0.0537161,-0.0966889,-0.0000000698078,36.749411,43.721791)">
<stop offset="0" style="stop-color:rgb(0%,0%,0%);stop-opacity:0.313726;"/>
<stop offset="0.222222" style="stop-color:rgb(0%,0%,0%);stop-opacity:0.27451;"/>
<stop offset="1" style="stop-color:rgb(0%,0%,0%);stop-opacity:0;"/>
</radialGradient>
<radialGradient id="radial1" gradientUnits="userSpaceOnUse" cx="450.908936" cy="189.579361" fx="450.908936" fy="189.579361" r="21.166656" gradientTransform="matrix(-0.000000119742,0.0537161,0.0966889,0.0000000698078,-14.919199,-5.175142)">
<stop offset="0" style="stop-color:rgb(0%,0%,0%);stop-opacity:0.313726;"/>
<stop offset="0.222222" style="stop-color:rgb(0%,0%,0%);stop-opacity:0.27451;"/>
<stop offset="1" style="stop-color:rgb(0%,0%,0%);stop-opacity:0;"/>
</radialGradient>
<radialGradient id="radial2" gradientUnits="userSpaceOnUse" cx="450.908936" cy="189.579361" fx="450.908936" fy="189.579361" r="21.166656" gradientTransform="matrix(-0.000000119742,-0.0537161,0.0966889,-0.0000000698078,-14.919199,43.721791)">
<stop offset="0" style="stop-color:rgb(0%,0%,0%);stop-opacity:0.313726;"/>
<stop offset="0.222222" style="stop-color:rgb(0%,0%,0%);stop-opacity:0.27451;"/>
<stop offset="1" style="stop-color:rgb(0%,0%,0%);stop-opacity:0;"/>
</radialGradient>
<radialGradient id="radial3" gradientUnits="userSpaceOnUse" cx="450.908936" cy="189.579361" fx="450.908936" fy="189.579361" r="21.166656" gradientTransform="matrix(0.000000119742,0.0537161,-0.0966889,0.0000000698078,36.74941,-5.175142)">
<stop offset="0" style="stop-color:rgb(0%,0%,0%);stop-opacity:0.313726;"/>
<stop offset="0.222222" style="stop-color:rgb(0%,0%,0%);stop-opacity:0.27451;"/>
<stop offset="1" style="stop-color:rgb(0%,0%,0%);stop-opacity:0;"/>
</radialGradient>
<linearGradient id="linear1" gradientUnits="userSpaceOnUse" x1="306.752655" y1="-16.485477" x2="305.954529" y2="-141.414581" gradientTransform="matrix(0.0495506,0,0,0.131056,-3.375079,21.433838)">
<stop offset="0" style="stop-color:rgb(100%,65.490198%,14.901961%);stop-opacity:1;"/>
<stop offset="1" style="stop-color:rgb(94.117647%,38.431373%,57.254905%);stop-opacity:1;"/>
</linearGradient>
<linearGradient id="linear2" gradientUnits="userSpaceOnUse" x1="308.684967" y1="0.171737" x2="308.684967" y2="-149.743195" gradientTransform="matrix(0.0448315,0,0,0.109213,-2.014109,19.254569)">
<stop offset="0" style="stop-color:rgb(25.882354%,25.882354%,25.882354%);stop-opacity:1;"/>
<stop offset="1" style="stop-color:rgb(38.039216%,38.039216%,38.039216%);stop-opacity:1;"/>
</linearGradient>
</defs>
<g id="surface1">
<path style=" stroke:none;fill-rule:nonzero;fill:url(#linear0);" d="M 3.183594 19.324219 L 18.648438 19.324219 L 18.648438 20.183594 L 3.183594 20.183594 Z M 3.183594 19.324219 "/>
<path style=" stroke:none;fill-rule:nonzero;fill:url(#radial0);" d="M 18.648438 19.273438 L 20.464844 19.273438 L 20.464844 18.363281 L 18.648438 18.363281 Z M 18.648438 19.273438 "/>
<path style=" stroke:none;fill-rule:nonzero;fill:url(#radial1);" d="M 3.183594 19.273438 L 1.363281 19.273438 L 1.363281 20.183594 L 3.183594 20.183594 Z M 3.183594 19.273438 "/>
<path style=" stroke:none;fill-rule:nonzero;fill:url(#radial2);" d="M 3.183594 19.273438 L 1.363281 19.273438 L 1.363281 18.363281 L 3.183594 18.363281 Z M 3.183594 19.273438 "/>
<path style=" stroke:none;fill-rule:nonzero;fill:url(#radial3);" d="M 18.648438 19.273438 L 20.464844 19.273438 L 20.464844 20.183594 L 18.648438 20.183594 Z M 18.648438 19.273438 "/>
<path style=" stroke:none;fill-rule:nonzero;fill:url(#linear1);" d="M 2.273438 2.902344 L 19.554688 2.902344 C 20.058594 2.902344 20.464844 3.285156 20.464844 3.757812 L 20.464844 18.414062 C 20.464844 18.890625 20.058594 19.273438 19.554688 19.273438 L 2.273438 19.273438 C 1.773438 19.273438 1.363281 18.890625 1.363281 18.414062 L 1.363281 3.757812 C 1.363281 3.285156 1.773438 2.902344 2.273438 2.902344 Z M 2.273438 2.902344 "/>
<path style=" stroke:none;fill-rule:nonzero;fill:rgb(100%,100%,100%);fill-opacity:0.392157;" d="M 2.273438 2.902344 C 1.769531 2.902344 1.363281 3.285156 1.363281 3.757812 L 1.363281 3.988281 C 1.363281 3.511719 1.769531 3.128906 2.273438 3.128906 L 19.554688 3.128906 C 20.058594 3.128906 20.464844 3.511719 20.464844 3.988281 L 20.464844 3.757812 C 20.464844 3.285156 20.058594 2.902344 19.554688 2.902344 Z M 2.273438 2.902344 "/>
<path style=" stroke:none;fill-rule:nonzero;fill:rgb(0%,0%,0%);fill-opacity:0.235294;" d="M 2.273438 19.28125 C 1.769531 19.28125 1.363281 18.898438 1.363281 18.421875 L 1.363281 18.191406 C 1.363281 18.667969 1.769531 19.050781 2.273438 19.050781 L 19.554688 19.050781 C 20.058594 19.050781 20.464844 18.667969 20.464844 18.191406 L 20.464844 18.421875 C 20.464844 18.898438 20.058594 19.28125 19.554688 19.28125 Z M 2.273438 19.28125 "/>
<path style=" stroke:none;fill-rule:nonzero;fill:rgb(6.666667%,6.666667%,6.666667%);fill-opacity:0.588235;" d="M 2.730469 3.757812 C 2.449219 3.757812 2.21875 3.984375 2.21875 4.265625 L 2.21875 17 C 2.21875 17.28125 2.449219 17.507812 2.730469 17.507812 L 19.101562 17.507812 C 19.382812 17.507812 19.609375 17.28125 19.609375 17 L 19.609375 4.265625 C 19.609375 3.984375 19.382812 3.757812 19.101562 3.757812 Z M 2.730469 3.863281 L 19.101562 3.863281 C 19.324219 3.863281 19.503906 4.042969 19.503906 4.265625 L 19.503906 17 C 19.503906 17.222656 19.324219 17.402344 19.101562 17.402344 L 2.730469 17.402344 C 2.503906 17.402344 2.328125 17.222656 2.328125 17 L 2.328125 4.265625 C 2.328125 4.042969 2.503906 3.863281 2.730469 3.863281 Z M 2.730469 3.863281 "/>
<path style=" stroke:none;fill-rule:nonzero;fill:url(#linear2);" d="M 2.730469 3.808594 L 19.101562 3.808594 C 19.351562 3.808594 19.554688 4.015625 19.554688 4.265625 L 19.554688 17 C 19.554688 17.25 19.351562 17.453125 19.101562 17.453125 L 2.730469 17.453125 C 2.476562 17.453125 2.273438 17.25 2.273438 17 L 2.273438 4.265625 C 2.273438 4.015625 2.476562 3.808594 2.730469 3.808594 Z M 2.730469 3.808594 "/>
<path style=" stroke:none;fill-rule:nonzero;fill:rgb(87.058824%,87.058824%,87.058824%);fill-opacity:0.705882;" d="M 2.730469 3.871094 C 2.511719 3.871094 2.332031 4.046875 2.332031 4.265625 L 2.332031 17 C 2.332031 17.21875 2.511719 17.394531 2.730469 17.394531 L 19.101562 17.394531 C 19.320312 17.394531 19.496094 17.21875 19.496094 17 L 19.496094 4.265625 C 19.496094 4.046875 19.320312 3.871094 19.101562 3.871094 Z M 2.730469 3.976562 L 19.101562 3.976562 C 19.261719 3.976562 19.390625 4.105469 19.390625 4.265625 L 19.390625 17 C 19.390625 17.160156 19.261719 17.285156 19.101562 17.285156 L 2.730469 17.285156 C 2.570312 17.285156 2.441406 17.160156 2.441406 17 L 2.441406 4.265625 C 2.441406 4.105469 2.570312 3.976562 2.730469 3.976562 Z M 2.730469 3.976562 "/>
<path style="fill:none;stroke-width:3;stroke-linecap:round;stroke-linejoin:miter;stroke:rgb(12.941177%,12.941177%,12.941177%);stroke-opacity:1;stroke-miterlimit:4;" d="M 52.904039 -147.460995 L 455.047454 -147.460995 C 466.773607 -147.460995 476.22725 -138.552755 476.22725 -127.553805 L 476.22725 213.504534 C 476.22725 224.594384 466.773607 233.502625 455.047454 233.502625 L 52.904039 233.502625 C 41.268786 233.502625 31.724243 224.594384 31.724243 213.504534 L 31.724243 -127.553805 C 31.724243 -138.552755 41.268786 -147.460995 52.904039 -147.460995 Z M 52.904039 -147.460995 " transform="matrix(0.0429729,0,0,0.0429729,0,9.239163)"/>
<path style=" stroke:none;fill-rule:nonzero;fill:rgb(92.54902%,92.54902%,92.54902%);fill-opacity:0.588235;" d="M 11.386719 6.539062 C 11.222656 6.535156 11.070312 6.617188 10.984375 6.753906 L 8.710938 10.390625 C 8.570312 10.617188 8.652344 10.917969 8.894531 11.039062 L 10.460938 11.542969 L 9.574219 14.125 C 9.503906 14.339844 9.597656 14.570312 9.792969 14.671875 C 9.992188 14.777344 10.234375 14.722656 10.367188 14.542969 L 13.097656 10.90625 C 13.269531 10.679688 13.191406 10.351562 12.9375 10.226562 L 11.371094 9.722656 L 11.816406 7.070312 C 11.863281 6.796875 11.660156 6.550781 11.386719 6.539062 Z M 11.386719 6.539062 "/>
<path style=" stroke:none;fill-rule:nonzero;fill:rgb(0%,0%,0%);fill-opacity:0.235294;" d="M 11.785156 7.265625 L 11.371094 9.722656 L 11.441406 9.746094 L 11.816406 7.523438 C 11.832031 7.429688 11.820312 7.34375 11.785156 7.265625 Z M 13.128906 10.859375 C 13.117188 10.875 13.109375 10.890625 13.097656 10.90625 L 10.367188 14.542969 C 10.234375 14.722656 9.992188 14.777344 9.792969 14.671875 C 9.710938 14.628906 9.648438 14.566406 9.605469 14.488281 L 9.574219 14.582031 C 9.503906 14.792969 9.597656 15.023438 9.792969 15.128906 C 9.992188 15.230469 10.234375 15.175781 10.367188 15 L 13.097656 11.359375 C 13.210938 11.207031 13.214844 11.011719 13.128906 10.859375 Z M 8.703125 10.859375 C 8.570312 11.085938 8.65625 11.375 8.894531 11.492188 L 10.320312 11.953125 L 10.460938 11.542969 L 8.894531 11.039062 C 8.808594 10.996094 8.746094 10.933594 8.703125 10.859375 Z M 8.703125 10.859375 "/>
<path style=" stroke:none;fill-rule:nonzero;fill:rgb(100%,100%,100%);fill-opacity:0.392157;" d="M 11.355469 6.539062 C 11.203125 6.542969 11.066406 6.625 10.984375 6.753906 L 8.710938 10.390625 C 8.617188 10.539062 8.621094 10.71875 8.703125 10.859375 C 8.703125 10.855469 8.707031 10.851562 8.710938 10.84375 L 10.984375 7.207031 C 11.070312 7.070312 11.222656 6.988281 11.386719 6.992188 C 11.566406 7 11.71875 7.109375 11.785156 7.261719 L 11.816406 7.070312 C 11.863281 6.796875 11.660156 6.550781 11.386719 6.539062 C 11.375 6.539062 11.367188 6.539062 11.355469 6.539062 Z M 11.441406 9.746094 L 11.371094 10.175781 L 12.9375 10.679688 C 13.019531 10.722656 13.085938 10.785156 13.128906 10.859375 C 13.257812 10.636719 13.175781 10.34375 12.9375 10.226562 Z M 10.320312 11.949219 L 9.574219 14.125 C 9.535156 14.25 9.546875 14.378906 9.605469 14.488281 L 10.460938 11.996094 Z M 10.320312 11.949219 "/>
<path style="fill:none;stroke-width:3;stroke-linecap:round;stroke-linejoin:round;stroke:rgb(12.941177%,12.941177%,12.941177%);stroke-opacity:1;stroke-miterlimit:4;" d="M 264.974696 -62.832713 C 261.156879 -62.923613 257.611763 -61.014705 255.611954 -57.83319 L 202.707915 26.795092 C 199.4355 32.067315 201.344409 39.066647 206.980234 41.88456 L 243.431299 53.610713 L 222.796906 113.695884 C 221.160698 118.695406 223.342308 124.058531 227.887329 126.421941 C 232.52325 128.876252 238.159075 127.603647 241.249689 123.422228 L 304.789076 38.793946 C 308.788694 33.521722 306.970686 25.886087 301.062159 22.977274 L 264.611095 11.251121 L 274.973741 -50.470257 C 276.064546 -56.833286 271.337725 -62.560012 264.974696 -62.832713 Z M 264.974696 -62.832713 " transform="matrix(0.0429729,0,0,0.0429729,0,9.239163)"/>
</g>
</svg>
